X: 16617
T: Handsome Young Maidens, The
R: jig
M: 6/8
K: Amajor
|:g|aed cdB|Ace a3|bee dee|Bee bag|
aed cdB|Ace aga|bee dee|BAG A2:|
|:B|c2 A EAc|d2d fed|c2e aec|B2B fed|
c2A EAc|d2d fed [1 ece aec|dBG A2:|
[2 ede fef|gfg a2||

